archdroid-icon-theme/Archdroid-BlueGrey/places/scalable/folder-xubuntu-color.svg

<?xml version="1.0" encoding="UTF-8" standalone="no"?>
<svg
   xmlns:dc="http://purl.org/dc/elements/1.1/"
   xmlns:cc="http://creativecommons.org/ns#"
   xmlns:rdf="http://www.w3.org/1999/02/22-rdf-syntax-ns#"
   xmlns:svg="http://www.w3.org/2000/svg"
   xmlns="http://www.w3.org/2000/svg"
   xmlns:sodipodi="http://sodipodi.sourceforge.net/DTD/sodipodi-0.dtd"
   xmlns:inkscape="http://www.inkscape.org/namespaces/inkscape"
   fill="#607D8B"
   width="48"
   height="48"
   viewBox="0 0 48 48"
   id="svg2"
   version="1.1"
   inkscape:version="0.91 r13725"
   sodipodi:docname="folder-.svg">
  <metadata
     id="metadata10">
    <rdf:RDF>
      <cc:Work
         rdf:about="">
        <dc:format>image/svg+xml</dc:format>
        <dc:type
           rdf:resource="http://purl.org/dc/dcmitype/StillImage" />
        <dc:title />
      </cc:Work>
    </rdf:RDF>
  </metadata>
  <defs
     id="defs8" />
  <sodipodi:namedview
     pagecolor="#ffffff"
     bordercolor="#666666"
     borderopacity="1"
     objecttolerance="10"
     gridtolerance="10"
     guidetolerance="10"
     inkscape:pageopacity="0"
     inkscape:pageshadow="2"
     inkscape:window-width="1366"
     inkscape:window-height="713"
     id="namedview6"
     showgrid="false"
     inkscape:zoom="11.02408851011358"
     inkscape:cx="3.730139115742215"
     inkscape:cy="24.42768926140633"
     inkscape:window-x="0"
     inkscape:window-y="30"
     inkscape:window-maximized="1"
     inkscape:current-layer="svg2"
     inkscape:snap-bbox="true"
     inkscape:bbox-paths="true"
     inkscape:bbox-nodes="true" />
  <path
     d="M 8 8 C 5.79 8 4.01953125 9.789999999999999 4.01953125 12 L 4 36 C 4 38.21 5.790000000000001 40 8 40 L 40 40 C 42.21 40 44 38.21 44 36 L 44 16 C 44 13.79 42.21 12 40 12 L 24 12 L 20 8 L 8 8 z M 34.251953125 16 A 0.3997159442724798 0.3985480120947521 0 0 0 34.302734375 16.001953125 C 34.3584470401899 15.998680190662 34.3459134737328 16.000950789071 34.361328125 16.01171875 C 34.3767427762675 16.0224867109291 34.4141743752646 16.0602555599922 34.474609375 16.1328125 C 34.5623926091682 16.23847501282307 34.5905525547721 16.29356513697911 34.607421875 16.384765625 A 0.3997159442724798 0.3985480120947521 0 0 0 34.607421875 16.404296875 C 34.73637902762664 18.38068422787972 34.39016708239041 20.39977750519875 33.904296875 22.322265625 A 0.3997159442724798 0.3985480120947521 0 0 0 33.833984375 22.490234375 C 33.7983437176703 22.71220093796075 33.7209708327449 22.8669400688987 33.599609375 22.951171875 C 33.48746042513885 23.0289861561512 33.4385905664871 23.043651111656 33.40625 23.037109375 C 33.3630414597026 23.028246712786 33.29027228074079 22.9593564795161 33.232421875 22.884765625 A 0.3997159442724798 0.3985480120947521 0 0 0 33.201171875 22.814453125 C 32.89019191411671 21.67983890189692 33.2776867984165 20.47532134044911 33.3984375 19.29296875 A 0.3997159442724798 0.3985480120947521 0 0 0 33.3984375 19.236328125 C 33.64478024108292 18.15659112741078 33.65048286758139 16.9538592722082 34.1953125 16.03515625 C 34.1834278283418 16.0543576439871 34.203477248825 16.029619920274 34.251953125 16 z M 38.71875 16.93359375 A 0.3745178587668918 0.3734235530113792 0 0 0 38.720703125 16.93359375 C 38.8010328372765 16.92362610686 38.94999137348179 17.02228996903861 38.96484375 17.052734375 C 39.0152585675313 17.1557862269878 39.0117893737865 17.20880769451486 38.955078125 17.345703125 A 0.3745178587668918 0.3734235530113792 0 0 0 38.953125 17.353515625 C 38.1331166371058 19.43845022146952 37.13501347047368 21.58332357906534 35.814453125 23.392578125 A 0.3745178587668918 0.3734235530113792 0 0 0 35.8046875 23.40625 C 35.792517732243 23.4244931553701 35.799593098414 23.4474657242503 35.791015625 23.46875 C 35.6922613989834 23.61617001310463 35.45207627821731 23.69948047398641 35.3203125 23.671875 C 35.18056646695299 23.6416691895169 35.045530277875 23.5087648977111 35.041015625 23.2734375 C 35.1386215036158 21.78491219197554 36.06657876037729 20.50774669421248 36.794921875 19.220703125 A 0.3745178587668918 0.3734235530113792 0 0 0 36.8359375 19.111328125 C 37.4143321668056 18.32361207920146 37.84566948859846 17.34315257460675 38.681640625 16.9375 A 0.3745178587668918 0.3734235530113792 0 0 0 38.71875 16.93359375 z M 25.734375 17.53515625 C 25.86988103979485 17.5104380604647 26.00932024677428 17.5205973163579 26.134765625 17.53515625 C 26.55164927448603 17.5641941231434 26.89610082034069 17.75081707620302 27.138671875 18.03515625 C 27.54680258846377 18.51308924416726 27.73978097391822 19.22135167039255 27.865234375 19.9609375 C 27.98938807339108 20.69745955401134 28.02496991276851 21.48758132613557 28.041015625 22.0859375 L 28.041015625 22.810546875 C 28.04087923644601 22.8279855977143 28.041015625 22.84633595503479 28.041015625 22.859375 C 28.041015625 22.8928125508924 28.0249699127685 22.93189962685659 28.041015625 22.9609375 C 28.0585856798935 22.9914952618204 28.11150203229991 22.9923269022858 28.140625 23.009765625 C 28.1639715112969 23.0242445645013 28.1667760817247 23.031956484364 28.19140625 23.03515625 C 28.2371365298597 23.0497151836422 28.28259450511561 23.0714585604987 28.3671875 23.0859375 C 28.65308197768439 23.1383336622835 29.10910085586818 23.158780536858 29.595703125 23.234375 C 30.56919648608374 23.38534794210358 31.84390328801191 23.66564682971523 33.15625 24.009765625 C 34.46916633477236 24.35402840973842 35.78588471303924 24.82603170456264 36.841796875 25.509765625 C 37.89376179175185 26.19101972706976 38.68232568305908 27.07309254195289 38.845703125 28.259765625 C 38.94897332892177 28.99586371006463 38.38706077286632 29.73558965810871 37.6171875 30.41015625 C 36.84862997553664 31.08370691630199 35.84367755480471 31.71488523572133 34.759765625 32.30859375 C 33.67628692942561 32.90185429708972 32.54802788150942 33.4400617122777 31.650390625 33.859375 C 31.20155193960494 34.06910363858795 30.80275495027575 34.21378566357846 30.498046875 34.359375 C 28.94709239927364 34.98317731008188 27.20129082751197 35.54000736126932 25.357421875 35.91015625 C 25.284494112908 35.91015625 25.1105434579558 35.953384785138 25.033203125 35.958984375 C 15.64410274988736 36.77026895308807 20.017578125 25.185546875 20.017578125 25.185546875 C 20.01810763350363 25.185546875 20.2489358864242 24.6379468948386 20.34375 24.310546875 C 20.3626839404331 24.236392306394 20.39453125 24.03733190455089 20.39453125 23.9609375 C 20.3814539945314 23.8838231481811 20.3322807449671 23.73995821887143 20.29296875 23.5859375 C 20.2012193674604 23.22058026030868 20.06064379394971 22.77396747796592 19.96875 22.234375 C 19.8783324115756 21.6936066081629 19.8193581108751 21.07388479124428 19.943359375 20.53515625 C 20.0667589249162 20.00457111229838 20.38373664046663 19.49621212056416 20.9453125 19.185546875 C 21.16263562646315 19.0775547847973 21.41285606762375 19.0335413377164 21.623046875 19.0859375 C 21.84081125854954 19.1396935626788 22.06694249200723 19.30051724985732 22.25 19.4609375 C 22.61625942739574 19.78208197802094 22.9457705588053 20.24664320825486 23.2265625 20.759765625 C 23.50632751561193 21.27085619056646 23.75947287004221 21.81602212664962 23.955078125 22.259765625 C 24.053093358166 22.48258930445178 24.1082038520088 22.65898997566797 24.1796875 22.810546875 C 24.211778924463 22.8774219767848 24.235481320466 22.9719283963585 24.255859375 23.009765625 C 24.2734294298934 23.0461629591054 24.255859375 23.04683539456999 24.255859375 23.03515625 C 24.2748735439943 23.0657140118204 24.3263457822999 23.0684987772858 24.35546875 23.0859375 C 24.3364545810057 23.0713785663579 24.4177300151749 23.12028668549869 24.48046875 23.134765625 C 24.5725069553597 23.1580439199993 24.64140702425919 23.191146464862 24.73046875 23.185546875 C 24.7756775442122 23.185546875 24.8210783367957 23.1624435977483 24.857421875 23.134765625 C 24.8734675872315 23.134765625 24.8413761627685 23.09465686135699 24.857421875 23.0859375 C 24.8866250712614 23.0509800604306 24.90625 23.0533624317856 24.90625 23.009765625 L 24.90625 22.91015625 C 24.8684623476949 22.77780594389589 24.79111249669927 22.58420567554424 24.681640625 22.185546875 C 24.55429382987489 21.72477262405391 24.4371494481144 21.12027339354699 24.35546875 20.53515625 C 24.2737720061734 19.94887119199598 24.23292764568823 19.37634640288423 24.35546875 18.861328125 C 24.47581159173609 18.35794899461535 24.75372040453597 17.92701015864173 25.2578125 17.736328125 C 25.40033853889618 17.6810521736443 25.60018470860814 17.56003442781712 25.734375 17.53515625 z "
     id="path4184"
     style="fill:#0044aa;fill-opacity:1" />
</svg>

<svg xmlns="http://www.w3.org/2000/svg" fill="#607D8B" viewBox="0 0 48 48"><path d="m8 8c-2.21 0-3.98 1.79-3.98 4l-.02 24c0 2.21 1.79 4 4 4h32c2.21 0 4-1.79 4-4v-20c0-2.21-1.79-4-4-4h-16l-4-4h-12m26.25195 8a.399716 .398548 0 0 0 .050781 .001953c.056-.003.043-.001.059.01.015.011.053.049.113.121.088.106.116.161.133.252a.399716 .398548 0 0 0 0 .019531c.129 1.976-.217 3.995-.703 5.918a.399716 .398548 0 0 0 -.070313 .167969c-.036.222-.113.377-.234.461-.112.078-.161.092-.193.086-.043-.009-.116-.078-.174-.152a.399716 .398548 0 0 0 -.03125 -.070313c-.311-1.135.077-2.339.197-3.521a.399716 .398548 0 0 0 0 -.056641c.246-1.08.252-2.282.797-3.201-.012.019.008-.006.057-.035m4.466797.933594a.374518 .373424 0 0 0 .001953 0c.08-.01.229.089.244.119.05.103.047.156-.01.293a.374518 .373424 0 0 0 -.001953 .007813c-.82 2.085-1.818 4.23-3.139 6.04a.374518 .373424 0 0 0 -.009766 .013672c-.012.018-.005.041-.014.063-.099.147-.339.231-.471.203-.14-.03-.275-.163-.279-.398.098-1.489 1.026-2.766 1.754-4.053a.374518 .373424 0 0 0 .041016 -.109375c.578-.788 1.01-1.768 1.846-2.174a.374518 .373424 0 0 0 .037109 -.003906m-12.984.602c.136-.025.275-.015.4 0 .417.029.761.216 1 .5.408.478.601 1.186.727 1.926.124.737.16 1.527.176 2.125v.725c0 .017 0 .036 0 .049 0 .033-.016.073 0 .102.018.031.07.031.1.049.023.014.026.022.051.025.046.015.091.036.176.051.286.052.742.073 1.229.148.973.151 2.248.431 3.561.775 1.313.344 2.63.816 3.686 1.5 1.052.681 1.841 1.563 2 2.75.103.736-.459 1.476-1.229 2.15-.769.674-1.774 1.305-2.857 1.898-1.083.593-2.212 1.131-3.109 1.551-.449.21-.848.354-1.152.5-1.551.624-3.297 1.181-5.141 1.551-.073 0-.247.043-.324.049-9.389.811-5.02-10.773-5.02-10.773.001 0 .231-.548.326-.875.019-.074.051-.273.051-.35-.013-.077-.062-.221-.102-.375-.092-.365-.232-.812-.324-1.352-.09-.541-.149-1.16-.025-1.699.123-.531.44-1.039 1-1.35.217-.108.468-.152.678-.1.218.054.444.215.627.375.366.321.696.786.977 1.299.28.511.533 1.056.729 1.5.098.223.153.399.225.551.032.067.056.161.076.199.018.036 0 .037 0 .025.019.031.07.033.1.051-.019-.015.062.034.125.049.092.023.161.056.25.051.045 0 .091-.023.127-.051.016 0-.016-.04 0-.049.029-.035.049-.033.049-.076v-.1c-.038-.132-.115-.326-.225-.725-.127-.461-.244-1.065-.326-1.65-.082-.586-.123-1.159 0-1.674.12-.503.398-.934.902-1.125.143-.055.342-.176.477-.201" fill="#04a"/></svg>
